X: 4656
T: Boy In The Boat, The
R: reel
M: 4/4
K: Dmajor
|:A3F DFAF|GFEF G2FG|AD D2 AD D2|AFGE DEFG|
A3F DFAF|GFEF G2FG|A3d B3d|1 cAGE DEFG:|2 cAGE EDD2||
|:(3Bcd ed cAAB|cAdB cA A2|(3Bcd ed cAAB|cAGE EDD2|
(3Bcd ed cAAB|cAdB cAAe|f3d e3d|1 cAGE EDD2:|2 cAGE DEFG||

